X: 256
T:The Light in Dennis Munion's Window
R:Reel
C:Ed Reavy
Z: transcribed by Bil 3/00
M:2/2
L:1/8
Z:Joe Reavy
N:Dennis lived along the "starry" lane. 
N:His place was near Aunt Ann's home. 
N:As children, Ed and his brother George 
N:would often walk Ann home when night 
N:came on. Ann had keen eyesight and was 
N:able to see Dennis' place long before 
N:the boys could. She said she could 
N:always tell the time of night it was by 
N:"the light in Dennis Munion's window."
K:G
AG|FGAF BDB,D|GBAc BGGA|B^cdf eB=cA|E2 AG FDB,D|
(3GGG BG AGBG|GABc defg|(3agf ge defd|cAFA G2:||
GA|B2 ef gfed|(3BcB GB ABGA|B2 ef gfga|(3bag (3agf gfed|
B2 ef gfed|eBBA B^cdf|(3efg fa gbaf|gedB G2:||
